X: 6853
T: Charlie Mulvihill's
R: reel
M: 4/4
K: Dmajor
AF ~F2 ~G3B|AGFD EGFE|DEFA dfec|dBAF E2 dB|
AF ~F2 ~G3B|AGFD EGFE|DEFA dfec|1 dBAF D4:|2 dBAF D2 de||
~f3 a ~g3 a|afdf eBBA|~f3e dffe|dBAF E2 fg|
af ~f2 bf ~f2|afdf eBBA|~f3e dffe|1 dBAF D2 de:|2 dBAF D4||

